X: 23684
T: Linsey Back
R: jig
M: 6/8
K: Gmajor
|:D>GB AGB|GBe edB|D>GB AGB|A>BA AGE|
D>GB AGB|GBe edB|e>dB AGE|DGG G3:|
|:g>ag ede|gab age|g>ag ged|eaa a2a|
g>ag ede|gab age|edB AGE|DGG G3:|

